X:1
T:BWV253 Soprano
C:Music21
L:1/4
M:4/4
K:A
V:1 name="Melody" clef=treble
%%MIDI program 1 40
 c/d/ e c A | B c d c | B A A3/2 B/ | c c B/A/ B | A3  c | B c A F | B A B c | A A A3/2 B/ | c c B/A/ B | A3 |]
V:2 name="Chords" clef=treble
%%MIDI program 2 0
[A,CEA]2 [A,CE A] [F,AC F] | [E,^G^CE]2 [D,F^AD]2 | [E,^G^CE]2 [A,CEA]2 | [F,ACF]2 [E,^G^CE]2 | [A,CEA]3 [A,CEA] | [E,^G^CE]2 [^F,AE^F]2 | [E,^G^CE]2 [A,CEA]2 | [D,FAD]2 [E,^G^CE]2 | [A,CEA]2 [E,^G^CE]2 | [A,CEA]4 |]

================================================================================
ITERATION 3 — REVISE
================================================================================

--- ABC ---
I'll address the three priority issues:

1. M1: Replace F major chord with a proper diatonic harmony (D minor / ii chord works well under melody A)
2. M4: Replace F major with a diatonic option (D minor or ii chord under melody B)
3. M6: Fix the semitone clash on beat 3-4 where melody has A and F — use proper harmonies avoiding clash

